icons/line/library.svg

<svg width="24" height="24" fill="none" xmlns="http://www.w3.org/2000/svg"><path d="M4 9v11M4 9h16M4 9H3l9-5 9 5h-1M4 20h16M4 20H3m17 0V9m0 11h1M8 13v3m4 0v-3m4 0v3" stroke="currentColor" stroke-width="2" stroke-linecap="round" stroke-linejoin="round"/></svg>

<svg width="24" height="24" viewBox="0 0 24 24" fill="none" xmlns="http://www.w3.org/2000/svg">
<path d="M4 9V20M4 9H20M4 9H3L12 4L21 9H20M4 20H20M4 20H3M20 20V9M20 20H21M8 13V16M12 16V13M16 13V16" stroke="currentColor" stroke-width="2" stroke-linecap="round" stroke-linejoin="round"/>
</svg>
